X:83
T: Schloss in Oesterreich
N: Q0024B
O: Mitteleuropa, Schweiz, Rheinfelden, Moehlin
N: Kleinere Melodievariante aus anderer Quelle abgedruckt.
R: Ballade, Gefangenschaft, Hinrichtung, Tod, Vergeltung
M: 3/4
L: 1/16
K: C
G2 | G2c2E6E2 | E2G2D6
G2 | G2G2A6F2 | F4E4z2
G2 | G2B2d6F2 | E2G2c6
e2 | dcBAG6F2 | F4E4z2

